src/assets/icons/stroke/document.svg

<svg width="1em" height="1em" viewBox="0 0 24 24" fill="none" xmlns="http://www.w3.org/2000/svg">
<path d="M7 3C5.9 3 5 3.9 5 5V19C5 20.1 5.9 21 7 21H17C18.1 21 19 20.1 19 19V7.6L14.4 3H7ZM17 19H7V5H13V9H17V19Z" fill="currentColor"/>
</svg>

<svg xmlns="http://www.w3.org/2000/svg" width="1em" height="1em" fill="none"><path fill="currentColor" d="M7 3a2 2 0 0 0-2 2v14c0 1.1.9 2 2 2h10a2 2 0 0 0 2-2V7.6L14.4 3H7Zm10 16H7V5h6v4h4v10Z"/></svg>
